X:205
T: Die drei heiligen Frauen an Jesu Grabe
N: A0558
O: Europa, Mitteleuropa, Deutschland
N: Muenchner Gsgb 1586 fol. 21.
R: Romanze, Ballade, Lied, religioeses Lied
M: 3/1
L: 1/2
K: D
A2 | A2A2G2 | =F4D2 | A2=c4 | A4
_B2 | A2A2G2 | =F4D2 | A2=c4 | A4
A2 | d2d2d2 | =c4A2 | =c4_B2 | A4
_B2 | A4G2 | A3G=F2 | E4=F2 | D4
E2 | =C4D2 | D2D4 | D4

@@@ Tune index: 518
